src/next/cmd/sc_selectionmodemenu.svg

<svg height="16" viewBox="0 0 16 16" width="16" xmlns="http://www.w3.org/2000/svg" xmlns:xlink="http://www.w3.org/1999/xlink"><linearGradient id="a" gradientUnits="userSpaceOnUse" x1="32.81356" x2="28.745761" y1="44.474576" y2="19.254237"><stop offset="0" stop-color="#070707"/><stop offset="1" stop-color="#474747"/></linearGradient><filter id="b" color-interpolation-filters="sRGB" height="1.306617" width="1.43589" x="-.217945" y="-.153309"><feGaussianBlur stdDeviation="3.1542391"/></filter><filter id="c" color-interpolation-filters="sRGB" height="1.038131" width="1.06476" x="-.03238" y="-.019066"><feGaussianBlur stdDeviation=".46367188"/></filter><g transform="matrix(.25 0 0 .25 -3 0)"><path d="m22.708984 3.9453125c-3.643939.037094-6.935512 3.3597782-6.935546 7.0039065v43.93164c.000478 4.147308 4.37543 7.703362 8.435546 6.857422l9.992188-2.080078 2.375 1.714844c1.876701 1.356544 5.885119 3.607037 8.047558 2.778906.01858-.0069 1.255573-.463996 2.644531-1.242187.617506-.345969 1.597838-.928014 2.550781-1.839844.431928-.413294 1.210343-1.264146 1.753907-2.351563.691831-1.384039-.303632-5.000467-.844433-7.163671-.0036-.01429-.05031-.245884-.05859-.283204l6.132812-4.144531c3.40028-2.297728 3.941244-7.821553 1.052735-10.736328l-.002-.002-30.099567-30.3710469c-1.314483-1.3259965-3.177893-2.0906385-5.044922-2.0722656z" filter="url(#b)" opacity=".76"/><path d="m17.03125 7.3398438c-2.671376.0271922-5.082006 2.4632515-5.082031 5.1347652v43.931641c.000351 3.040395 3.205165 5.647504 6.18164 5.027344l10.800782-2.248047 4.670087 5.587096c1.376447.994944 3.261915 1.239033 4.847657.63086h.002c.01282-.0048 1.149662-.428397 2.396484-1.126953.577508-.32356 1.382234-.803021 2.171875-1.558594.368036-.352159.950562-.988787 1.375-1.837891.513582-1.027443-.77469-5.741835-1.175947-7.346862-.03825-.153003-.209942-.997624-.332031-1.582031l7.173828-4.847656c2.493301-1.684843 2.890644-5.734647.771484-7.871094l-30.101609-30.373047c-.963649-.9720894-2.328545-1.5330004-3.697266-1.5195312h-.002z" fill="#fff" transform="translate(5.694915 -3.525424)"/><path d="m23.737884 11.281217v40.419921l11.863281-2.470703c.263538-.05442.537815.0044.755859.16211l6.527477 6.654892c.285679-.118453.599894-.234307 1.154297-.544922.384975-.215689.749087-.464247.9375-.644531.06051-.0579.06738-.07382.08789-.101562-.320785-1.338154-3.156382-8.467393-3.156382-8.467393-.07594-.378615.08265-.765836.402343-.982422l9.074219-6.130859z" fill="url(#a)"/></g><g stroke-width="15.11811" transform="matrix(.25 0 0 .25 0 -1)"><path d="m36 10.816406a5.1837139 5.1837139 0 0 0 -5.183594 5.183594v4a5.1837139 5.1837139 0 0 0 5.183594 5.183594h2.816406v29.632812h-2.816406a5.1837139 5.1837139 0 0 0 -5.183594 5.183594v4a5.1837139 5.1837139 0 0 0 5.183594 5.183594h8a5.1837139 5.1837139 0 0 0 3.998047-1.892578 5.1837139 5.1837139 0 0 0 4.001953 1.892578h8a5.1837139 5.1837139 0 0 0 5.183594-5.183594v-4a5.1837139 5.1837139 0 0 0 -5.183594-5.183594h-2.816406v-29.632812h2.816406a5.1837139 5.1837139 0 0 0 5.183594-5.183594v-4a5.1837139 5.1837139 0 0 0 -5.183594-5.183594h-8a5.1837139 5.1837139 0 0 0 -3.998047 1.892578 5.1837139 5.1837139 0 0 0 -4.001953-1.892578z" fill="#1a1a1a" filter="url(#c)" opacity=".778"/><path d="m36 12.007812a3.9930672 3.9930672 0 0 0 -3.992188 3.992188v4a3.9930672 3.9930672 0 0 0 3.992188 3.992188h4.007812v32.015624h-4.007812a3.9930672 3.9930672 0 0 0 -3.992188 3.992188v4a3.9930672 3.9930672 0 0 0 3.992188 3.992188h8a3.9930672 3.9930672 0 0 0 3.992188-3.992188v-.0078h.01562v.0078a3.9930672 3.9930672 0 0 0 3.992192 3.992188h8a3.9930672 3.9930672 0 0 0 3.992188-3.992188v-4a3.9930672 3.9930672 0 0 0 -3.992188-3.992188h-4.007812v-32.015624h4.007812a3.9930672 3.9930672 0 0 0 3.992188-3.992188v-4a3.9930672 3.9930672 0 0 0 -3.992188-3.992188h-8a3.9930672 3.9930672 0 0 0 -3.992188 3.992188v.0078h-.01562v-.0078a3.9930672 3.9930672 0 0 0 -3.992192-3.992188z" fill="#fff"/><path d="m36.000001 16.00002v3.99995l7.999999.000151v-4.000101zm7.999999 4.000101v39.999949h8v-39.999949zm8 0h7.999999v-4.000101h-7.999999zm0 39.999949v3.999949h8.000003l-.000012-3.999949zm-8 0h-7.999999v3.999949h7.999999z" fill="#1c2d40"/></g></svg>

<?xml version="1.0" encoding="UTF-8" standalone="no"?>
<!-- Created with Inkscape (http://www.inkscape.org/) -->

<svg
   xmlns:dc="http://purl.org/dc/elements/1.1/"
   xmlns:cc="http://creativecommons.org/ns#"
   xmlns:rdf="http://www.w3.org/1999/02/22-rdf-syntax-ns#"
   xmlns:svg="http://www.w3.org/2000/svg"
   xmlns="http://www.w3.org/2000/svg"
   xmlns:xlink="http://www.w3.org/1999/xlink"
   xmlns:sodipodi="http://sodipodi.sourceforge.net/DTD/sodipodi-0.dtd"
   xmlns:inkscape="http://www.inkscape.org/namespaces/inkscape"
   version="1.1"
   id="svg2"
   width="16"
   height="16"
   viewBox="0 0 16 16"
   sodipodi:docname="sc_selectionmodemenu.svg"
   inkscape:version="0.92.4 (unknown)"
   inkscape:export-filename="/home/rizmut/Dokumen/Rizmut/Github/libreoffice-style-karasa-jaga/build/images_karasa_jaga/cmd/sc_selectionmodemenu.png"
   inkscape:export-xdpi="96"
   inkscape:export-ydpi="96">
  <metadata
     id="metadata8">
    <rdf:RDF>
      <cc:Work
         rdf:about="">
        <dc:format>image/svg+xml</dc:format>
        <dc:type
           rdf:resource="http://purl.org/dc/dcmitype/StillImage" />
        <dc:title></dc:title>
      </cc:Work>
    </rdf:RDF>
  </metadata>
  <defs
     id="defs6">
    <linearGradient
       inkscape:collect="always"
       id="linearGradient3707">
      <stop
         style="stop-color:#070707;stop-opacity:1;"
         offset="0"
         id="stop3703" />
      <stop
         style="stop-color:#474747;stop-opacity:1"
         offset="1"
         id="stop3705" />
    </linearGradient>
    <linearGradient
       inkscape:collect="always"
       xlink:href="#linearGradient3707"
       id="linearGradient3709"
       x1="27.118645"
       y1="48"
       x2="23.050846"
       y2="22.779661"
       gradientUnits="userSpaceOnUse"
       gradientTransform="translate(5.6949153,-3.5254237)" />
    <filter
       inkscape:collect="always"
       style="color-interpolation-filters:sRGB"
       id="filter4623"
       x="-0.21794482"
       width="1.4358896"
       y="-0.15330854"
       height="1.3066171">
      <feGaussianBlur
         inkscape:collect="always"
         stdDeviation="3.1542391"
         id="feGaussianBlur4625" />
    </filter>
    <filter
       inkscape:collect="always"
       style="color-interpolation-filters:sRGB"
       id="filter890"
       x="-0.032380086"
       width="1.0647602"
       y="-0.019065721"
       height="1.0381314">
      <feGaussianBlur
         inkscape:collect="always"
         stdDeviation="0.46367188"
         id="feGaussianBlur892" />
    </filter>
  </defs>
  <sodipodi:namedview
     pagecolor="#ffffff"
     bordercolor="#666666"
     borderopacity="1"
     objecttolerance="10"
     gridtolerance="10"
     guidetolerance="10"
     inkscape:pageopacity="0"
     inkscape:pageshadow="2"
     inkscape:window-width="1366"
     inkscape:window-height="714"
     id="namedview4"
     showgrid="true"
     inkscape:snap-global="false"
     inkscape:zoom="10.429825"
     inkscape:cx="-2.0898823"
     inkscape:cy="4.2872134"
     inkscape:window-x="0"
     inkscape:window-y="28"
     inkscape:window-maximized="1"
     inkscape:current-layer="g842">
    <inkscape:grid
       type="xygrid"
       id="grid834" />
  </sodipodi:namedview>
  <g
     id="g842"
     transform="scale(0.25)">
    <g
       id="g876"
       transform="translate(-12)">
      <path
         style="opacity:0.76000001;fill:#000000;fill-opacity:1;stroke:none;stroke-width:1px;stroke-linecap:butt;stroke-linejoin:miter;stroke-opacity:1;filter:url(#filter4623)"
         d="m 22.708984,3.9453125 c -3.643939,0.037094 -6.935512,3.3597782 -6.935546,7.0039065 v 43.93164 c 4.78e-4,4.147308 4.37543,7.703362 8.435546,6.857422 l 9.992188,-2.080078 2.375,1.714844 c 1.876701,1.356544 5.885119,3.607037 8.047558,2.778906 0.01858,-0.0069 1.255573,-0.463996 2.644531,-1.242187 0.617506,-0.345969 1.597838,-0.928014 2.550781,-1.839844 0.431928,-0.413294 1.210343,-1.264146 1.753907,-2.351563 0.691831,-1.384039 -0.303632,-5.000467 -0.844433,-7.163671 -0.0036,-0.01429 -0.05031,-0.245884 -0.05859,-0.283204 l 6.132812,-4.144531 c 3.40028,-2.297728 3.941244,-7.821553 1.052735,-10.736328 l -0.002,-0.002 L 27.753906,6.0175781 C 26.439423,4.6915816 24.576013,3.9269396 22.708984,3.9453125 Z"
         id="path4521"
         inkscape:connector-curvature="0"
         sodipodi:nodetypes="ccccccccscccccccc" />
      <path
         transform="translate(5.6949153,-3.5254237)"
         style="fill:#ffffff;fill-opacity:1;stroke:none;stroke-width:1px;stroke-linecap:butt;stroke-linejoin:miter;stroke-opacity:1"
         d="M 17.03125,7.3398438 C 14.359874,7.367036 11.949244,9.8030953 11.949219,12.474609 V 56.40625 c 3.51e-4,3.040395 3.205165,5.647504 6.18164,5.027344 l 10.800782,-2.248047 4.670087,5.587096 c 1.376447,0.994944 3.261915,1.239033 4.847657,0.63086 h 0.002 c 0.01282,-0.0048 1.149662,-0.428397 2.396484,-1.126953 0.577508,-0.32356 1.382234,-0.803021 2.171875,-1.558594 0.368036,-0.352159 0.950562,-0.988787 1.375,-1.837891 0.513582,-1.027443 -0.77469,-5.741835 -1.175947,-7.346862 -0.03825,-0.153003 -0.209942,-0.997624 -0.332031,-1.582031 l 7.173828,-4.847656 c 2.493301,-1.684843 2.890644,-5.734647 0.771484,-7.871094 L 20.730469,8.859375 C 19.76682,7.8872856 18.401924,7.3263746 17.033203,7.3398438 h -0.002 z"
         id="path4516"
         inkscape:connector-curvature="0"
         sodipodi:nodetypes="ccccccccscccccccccc" />
      <path
         inkscape:connector-curvature="0"
         id="path3701"
         d="m 23.737884,11.281217 v 40.419921 l 11.863281,-2.470703 c 0.263538,-0.05442 0.537815,0.0044 0.755859,0.16211 l 6.527477,6.654892 c 0.285679,-0.118453 0.599894,-0.234307 1.154297,-0.544922 0.384975,-0.215689 0.749087,-0.464247 0.9375,-0.644531 0.06051,-0.0579 0.06738,-0.07382 0.08789,-0.101562 -0.320785,-1.338154 -3.156382,-8.467393 -3.156382,-8.467393 -0.07594,-0.378615 0.08265,-0.765836 0.402343,-0.982422 l 9.074219,-6.130859 z"
         style="fill:url(#linearGradient3709);fill-opacity:1;stroke:none;stroke-width:1px;stroke-linecap:butt;stroke-linejoin:miter;stroke-opacity:1"
         sodipodi:nodetypes="cccccccccccc" />
    </g>
    <g
       id="g897"
       transform="translate(0,-4)">
      <path
         sodipodi:type="inkscape:offset"
         inkscape:radius="5.1831956"
         inkscape:original="M 36 16 L 36 20 L 44 20 L 44 16 L 36 16 z M 44 20 L 44 60 L 52 60 L 52 20 L 44 20 z M 52 20 L 60 20 L 60 16 L 52 16 L 52 20 z M 52 60 L 52 64 L 60 64 L 60 60 L 52 60 z M 44 60 L 36 60 L 36 64 L 44 64 L 44 60 z "
         style="opacity:0.778;fill:#1a1a1a;stroke-width:15.1181097;filter:url(#filter890)"
         id="path884"
         d="M 36,10.816406 A 5.1837139,5.1837139 0 0 0 30.816406,16 v 4 A 5.1837139,5.1837139 0 0 0 36,25.183594 h 2.816406 V 54.816406 H 36 A 5.1837139,5.1837139 0 0 0 30.816406,60 v 4 A 5.1837139,5.1837139 0 0 0 36,69.183594 h 8 A 5.1837139,5.1837139 0 0 0 47.998047,67.291016 5.1837139,5.1837139 0 0 0 52,69.183594 h 8 A 5.1837139,5.1837139 0 0 0 65.183594,64 V 60 A 5.1837139,5.1837139 0 0 0 60,54.816406 H 57.183594 V 25.183594 H 60 A 5.1837139,5.1837139 0 0 0 65.183594,20 V 16 A 5.1837139,5.1837139 0 0 0 60,10.816406 H 52 A 5.1837139,5.1837139 0 0 0 48.001953,12.708984 5.1837139,5.1837139 0 0 0 44,10.816406 Z" />
      <path
         d="M 36,12.007812 A 3.9930672,3.9930672 0 0 0 32.007812,16 v 4 A 3.9930672,3.9930672 0 0 0 36,23.992188 h 4.007812 V 56.007812 H 36 A 3.9930672,3.9930672 0 0 0 32.007812,60 v 4 A 3.9930672,3.9930672 0 0 0 36,67.992188 h 8 A 3.9930672,3.9930672 0 0 0 47.992188,64 v -0.0078 h 0.01562 V 64 A 3.9930672,3.9930672 0 0 0 52,67.992188 h 8 A 3.9930672,3.9930672 0 0 0 63.992188,64 V 60 A 3.9930672,3.9930672 0 0 0 60,56.007812 H 55.992188 V 23.992188 H 60 A 3.9930672,3.9930672 0 0 0 63.992188,20 V 16 A 3.9930672,3.9930672 0 0 0 60,12.007812 H 52 A 3.9930672,3.9930672 0 0 0 48.007812,16 v 0.0078 h -0.01562 V 16 A 3.9930672,3.9930672 0 0 0 44,12.007812 Z"
         id="path880"
         style="fill:#ffffff;fill-opacity:1;stroke-width:15.1181097"
         inkscape:original="M 36 16 L 36 20 L 44 20 L 44 16 L 36 16 z M 44 20 L 44 60 L 52 60 L 52 20 L 44 20 z M 52 20 L 60 20 L 60 16 L 52 16 L 52 20 z M 52 60 L 52 64 L 60 64 L 60 60 L 52 60 z M 44 60 L 36 60 L 36 64 L 44 64 L 44 60 z "
         inkscape:radius="3.9926679"
         sodipodi:type="inkscape:offset" />
      <path
         style="fill:#1c2d40;stroke-width:15.1181097"
         inkscape:connector-curvature="0"
         d="m 36.000001,16.00002 v 3.99995 L 44,20.000121 V 16.00002 Z M 44,20.000121 V 60.00007 h 8 V 20.000121 Z m 8,0 h 7.999999 V 16.00002 H 52 Z m 0,39.999949 v 3.999949 h 8.000003 l -1.2e-5,-3.999949 z m -8,0 h -7.999999 v 3.999949 H 44 Z"
         id="path4" />
    </g>
  </g>
</svg>
